resources/svg/connect.svg

<svg xmlns="http://www.w3.org/2000/svg" viewBox="0 0 24 24" fill="currentColor"><path fill="none" stroke="currentColor" stroke-width="2" d="M10,21 C7.50000053,23.5 5.00000002,23 3,21 C0.999999977,19 0.500000114,16.5 3.00000004,14 C5.49999997,11.5 5.99999998,11 5.99999998,11 L13.0000005,18 C13.0000005,18 12.4999995,18.5 10,21 Z M14.0003207,3 C16.5,0.499999776 19,0.999999776 21.001068,3 C23.002136,5.00000022 23.5,7.49999978 21.001068,10 C18.5021359,12.5000002 18.0007478,13 18.0007478,13 L11,6 C11,6 11.5006414,5.50000022 14.0003207,3 Z M11,9.9999 L8.5,12.4999999 L11,9.9999 Z M14,13 L11.5,15.5 L14,13 Z"/></svg>

<svg viewBox="0 0 24 24"><path fill="none" stroke="currentColor" stroke-width="2" d="M10 21c-2.5 2.5-5 2-7 0s-2.5-4.5 0-7l3-3l7 7l-3 3zm4-18c2.5-2.5 5-2 7.001 0c2.001 2 2.499 4.5 0 7l-3 3L11 6l3-3zm-3 7l-2.5 2.5L11 10zm3 3l-2.5 2.5L14 13z"/></svg>
